**kern	**silbe
*ICvox	*
=1	=1
*e:	*
*M3/4	*
*clefG2	*
2.r	.
=2	=2
2.r	.
=3	=3
2.r	.
=4	=4
2.r	.
=5	=5
2.r	.
=6	=6
2.r	.
=7	=7
2.r	.
=8	=8
2.r	.
=9	=9
2.r	.
=10	=10
4r	.
8r	.
8B	I
8e	put
8e	a
=11	=11
8g	spell
[8e	on
8e]	_
[4.e	you
=12	=12
8e]	_
8d	_
8B	_
8r	.
4r	.
=13	=13
2.r	.
=14	=14
2.r	.
=15	=15
2.r	.
=16	=16
2.r	.
=17	=17
4r	.
8e	Be-
[4.a	-cause
=18	=18
4.a]	_
4.g	you're
=19	=19
4.f#	mine
[4.e	_
=20	=20
4e]	_
8d	_
8B	_
4r	.
=21	=21
2.r	.
=22	=22
2.r	.
=23	=23
2.r	.
=24	=24
2.r	.
=25	=25
2.r	.
=26	=26
4r	.
8g	You
8g	bet-
4g	-ter
=27	=27
4g	stop
8e	the
[8e	things
4e_	_
=28	=28
4e]	_
8e	that
8d	you're
[4e	do
=29	=29
8e]	_
8d	_
4c	ing.
4r	.
=30	=30
2.r	.
=31	=31
2.r	.
=32	=32
4r	.
8r	.
8g	I
8g	said,
8e	a'-
=33	=33
4g	-watch
4g	out!
4r	.
=34	=34
4r	.
8r	.
8B	I
4B	ain't
=35	=35
4d#	ly-
[2B	-ing
=36	=36
4B]	...
4r	.
4r	.
=37	=37
2.r	.
=38	=38
2.r	.
=39	=39
2.r	.
=40	=40
[2.a	Yeah
=41	=41
2a]	_
[4b	_
=42	=42
2b]	!
4r	.
=43	=43
2.r	.
=44	=44
8.b	I
8.e	ain't
8.e	gon-
8.d	-na
=45	=45
4e	take
8e	none
8d	a'-
4e	-your...
=46	=46
2.r	.
=47	=47
2.r	.
=48	=48
8.g	foo-
8.e	-ling
8.e	a-
[8.e	-round
=49	=49
4e]	_
8d	_
8B	!
4r	.
=50	=50
2.r	.
=51	=51
4r	.
4r	.
8r	.
8e	I
=52	=52
4.g	ain't
8.g	gon-
8.e	-na
=53	=53
4g	take
8g	none
8e	a'-
[4g	-your
=54	=54
2.g]	...
=55	=55
4r	.
4r	.
8r	.
8B	a'-
=56	=56
4g	-put-
8g	-me-
8e	-down
[4g	_
=57	=57
8g]	!
8r	.
4r	.
4r	.
=58	=58
4r	.
8B	I
8B	put
4e	a
=59	=59
8g	spell
[8e	on
4e]	_
[4e	you
=60	=60
8e]	_
8d	_
4B	...
4r	.
=61	=61
2.r	.
=62	=62
2.r	.
=63	=63
2.r	.
=64	=64
2.r	.
=65	=65
4r	.
16B	Be-
[8.a	-cause
4a_	_
=66	=66
4.a]	_
4.g	you're
=67	=67
4.f#	mine
4.e	!
=68	=68
4r	.
[2g	Whoa
=69	=69
4g]	,
4g	al-
4g	-right!
=70	=70
2.r	.
=71	=71
2.r	.
=72	=72
2.r	.
=73	=73
2.r	.
=74	=74
2.r	.
=75	=75
2.r	.
=76	=76
2.r	.
=77	=77
2.r	.
=78	=78
2.r	.
=79	=79
2.r	.
=80	=80
2.r	.
=81	=81
2.r	.
=82	=82
2.r	.
=83	=83
2.r	.
=84	=84
2.r	.
=85	=85
2.r	.
=86	=86
2.r	.
=87	=87
2.r	.
=88	=88
2.r	.
=89	=89
2.r	.
=90	=90
2.r	.
=91	=91
2.r	.
=92	=92
2.r	.
=93	=93
2.r	.
=94	=94
2.r	.
=95	=95
2.r	.
=96	=96
2.r	.
=97	=97
2.r	.
=98	=98
2.r	.
=99	=99
2.r	.
=100	=100
2.r	.
=101	=101
2.r	.
=102	=102
2.r	.
=103	=103
2.r	.
=104	=104
2.r	.
=105	=105
2.r	.
=106	=106
2.r	.
=107	=107
2.r	.
=108	=108
2.r	.
=109	=109
2.r	.
=110	=110
2.r	.
=111	=111
2.r	.
=112	=112
2.r	.
=113	=113
2.r	.
=114	=114
2.r	.
=115	=115
2.r	.
=116	=116
2.r	.
=117	=117
2.r	.
=118	=118
2.r	.
=119	=119
2.r	.
=120	=120
2.r	.
=121	=121
2.r	.
=122	=122
2.r	.
=123	=123
2.r	.
=124	=124
2.r	.
=125	=125
2.r	.
=126	=126
2.r	.
=127	=127
2.r	.
=128	=128
2.r	.
=129	=129
2.r	.
=130	=130
2.r	.
=131	=131
2.r	.
=132	=132
2.r	.
=133	=133
2.r	.
=134	=134
2.r	.
=135	=135
2.r	.
=136	=136
2.r	.
=137	=137
2.r	.
=138	=138
2.r	.
=139	=139
2.r	.
=140	=140
2.r	.
=141	=141
2.r	.
=142	=142
2.r	.
=143	=143
2.r	.
=144	=144
2.r	.
=145	=145
2.r	.
=146	=146
2.r	.
=147	=147
2.r	.
=148	=148
2.r	.
=149	=149
2.r	.
=150	=150
2.r	.
=151	=151
2.r	.
=152	=152
2.r	.
=153	=153
2.r	.
=154	=154
2.r	.
=155	=155
2.r	.
=156	=156
2.r	.
=157	=157
2.r	.
=158	=158
2.r	.
=159	=159
2.r	.
=160	=160
2.r	.
=161	=161
2.r	.
=162	=162
2.r	.
=163	=163
2.r	.
=164	=164
2.r	.
=165	=165
2.r	.
=166	=166
2.r	.
=167	=167
2.r	.
=168	=168
2.r	.
=169	=169
2.r	.
=170	=170
2.r	.
=171	=171
2.r	.
=172	=172
2.r	.
=173	=173
2.r	.
=174	=174
2.r	.
=175	=175
2.r	.
=176	=176
2.r	.
=177	=177
2.r	.
=178	=178
2.r	.
=179	=179
2.r	.
=180	=180
2.r	.
=181	=181
2.r	.
=182	=182
2.r	.
=183	=183
2.r	.
=184	=184
2.r	.
=185	=185
2.r	.
=186	=186
2.r	.
=187	=187
2.r	.
=188	=188
2.r	.
=189	=189
2.r	.
=190	=190
2.r	.
=191	=191
2.r	.
=192	=192
2.r	.
=193	=193
2.r	.
=194	=194
2.r	.
=195	=195
2.r	.
=196	=196
2.r	.
=197	=197
2.r	.
=198	=198
2.r	.
=199	=199
2.r	.
=200	=200
2.r	.
=201	=201
2.r	.
=202	=202
2.r	.
=203	=203
2.r	.
=204	=204
2.r	.
=205	=205
2.r	.
=206	=206
2.r	.
=207	=207
2.r	.
=208	=208
2.r	.
=209	=209
2.r	.
=210	=210
2.r	.
=211	=211
2.r	.
=212	=212
2.r	.
=213	=213
2.r	.
=214	=214
2.r	.
=215	=215
2.r	.
=216	=216
2.r	.
=217	=217
2.r	.
=218	=218
4r	.
8r	.
8e	I
8e	put
8e	a
=219	=219
8g	spell
[8e	on
8e]	_
[4.e	you
=220	=220
4e]	_
8d	_
[8B	_
4B_	_
=221	=221
4.B]	...
8r	.
4r	.
=222	=222
2.r	.
=223	=223
2.r	.
=224	=224
2.r	.
=225	=225
4r	.
8.r	.
16e	Be-
[4a	-cause
=226	=226
4.a]	_
4.g	you're
=227	=227
4.f#	mine
[4.e	_
=228	=228
4e]	_
8d	_
8B	_
4r	.
=229	=229
2.r	.
=230	=230
2.r	.
=231	=231
2.r	.
=232	=232
2.r	.
=233	=233
2.r	.
=234	=234
4r	.
8g	You
8g	bet-
4g	-ter
=235	=235
4g	stop
8e	the
[8e	things
4e_	_
=236	=236
4e]	_
4e	that
8d	you're
[8e	do
=237	=237
4e_	_
8e]	_
8d	_
4B	ing.
=238	=238
2.r	.
=239	=239
2.r	.
=240	=240
4r	.
8r	.
8g	I
8g	said,
8e	a'-
=241	=241
4g	-watch
2g	out!
=242	=242
4r	.
8r	.
8B	I
4B	ain't
=243	=243
4d#	ly-
[2B	-ing
=244	=244
4.B]	...
8r	.
4r	.
=245	=245
2.r	.
=246	=246
2.r	.
=247	=247
2.r	.
=248	=248
[2.a	Yeah
=249	=249
2a]	_
[4b	!
=250	=250
2b]	_
4r	.
=251	=251
4r	.
4r	.
8r	.
8a	I
=252	=252
4.a#	ain't
8.e	gon-
8.d	-na
=253	=253
4e	take
8e	none
8d	a'-
[4e	-your
=254	=254
4e]	...
4r	.
4r	.
=255	=255
2.r	.
=256	=256
8.g	foo-
8.e	-ling
8.e	a-
[8.e	-round
=257	=257
4e]	_
8d	_
[8B	_
4B]	_
=258	=258
2.r	.
=259	=259
4r	.
4r	.
8r	.
8e	I
=260	=260
4.g	ain't
8.g	gon-
8.e	-na
=261	=261
4g	take
8g	none
8e	a'-
[4g	-your
=262	=262
2.g]	...
=263	=263
4r	.
4r	.
8r	.
8B	a'-
=264	=264
4g	-put-
8g	-me-
32f#	-down
16.g	_
[4g	_
=265	=265
4g]	!
4r	.
4r	.
=266	=266
4r	.
8B	I
8e	put
4e	a
=267	=267
8g	spell
[8e	on
4e]	_
[4e	you
=268	=268
4e]	_
8d	_
[8B	_
4B]	_
=269	=269
2.r	.
=270	=270
2.r	.
=271	=271
2.r	.
=272	=272
2.r	.
=273	=273
4r	.
16B	Be-
[8.a	-cause
4a_	_
=274	=274
4.a]	_
4.g	you're
=275	=275
4.f#	mine
4.e	!
=276	=276
4r	.
[2g	Oh,
=277	=277
4g]	_
4g	_
[4g	_
=278	=278
8g]	_
[8g	_
4g]	_
4r	.
=279	=279
2.r	.
=280	=280
2.r	.
=281	=281
2.r	.
=282	=282
2.r	.
=283	=283
2.r	.
=284	=284
2.r	.
=285	=285
2.r	.
=286	=286
2.r	.
=287	=287
2.r	.
=288	=288
2.r	.
=289	=289
2.r	.
=290	=290
2.r	.
=291	=291
2.r	.
=292	=292
2.r	.
=293	=293
2.r	.
=294	=294
2.r	.
=295	=295
2.r	.
=296	=296
2.r	.
=297	=297
2.r	.
=298	=298
2.r	.
*-	*-
!!!ENC: Nathaniel Condit-Schultz